X:11
T:Sions House. TJD.11
M:3/8
L:1/8
Q:3/8=50
S:T.J.Dixon MS1, Lincolnshire, 1798
R:Waltz
N:Dots added to crotchets in bars4,8 and 12
N:crotchet d in final bar changed to quaver
A:Lincolnshire, Holton le Moor
Z:vmp.R.Greig2010
K:G
BdB|cec|BdB|A3|BdB|cec|BcA|G3|!
gbg|faf|ege|d3gbg afd|ge^c|dzc”^Da Capo”|]

